build/logo/JinjaSolid.svg

<svg xmlns="http://www.w3.org/2000/svg" fill="none" viewBox="0 0 24 24" focusable="false"><path d="M0 0H24V24H0z"/><path fill="#74767B" fill-rule="evenodd" d="M7 4L17 4C18.6572 4 20 5.34314 20 7L20 17C20 18.6569 18.6572 20 17 20L7 20C5.34277 20 4 18.6569 4 17L4 7C4 5.34314 5.34277 4 7 4ZM17.6562 8.19093C17.1243 8.44155 16.5592 8.65404 15.9609 8.82838C15.9688 8.86832 15.9727 8.90962 15.9727 8.952L15.9727 10.9895L16.3105 10.9895C16.6748 10.9895 16.9609 11.2755 16.9609 11.6395C16.9609 12.0035 16.6748 12.2895 16.3105 12.2895L15.9727 12.2895L15.9727 16.3969C15.9727 16.7609 15.6865 17.0469 15.3223 17.0469C14.958 17.0469 14.6719 16.7609 14.6719 16.3969L14.6719 12.2895L11.8535 12.2895L9.01758 12.2895L9.01758 16.3969C9.01758 16.7609 8.73145 17.0469 8.36719 17.0469C8.00293 17.0469 7.7168 16.7609 7.7168 16.3969L7.7168 12.2895L7.41211 12.2895C7.04785 12.2895 6.76172 12.0035 6.76172 11.6395C6.76172 11.2755 7.04785 10.9895 7.41211 10.9895L7.7168 10.9895L7.7168 9.20033C7.33529 9.15635 6.9401 9.10581 6.53125 9.04872C6.1709 8.99837 5.92773 8.67554 5.97754 8.31505C6.02832 7.95454 6.35059 7.71086 6.71191 7.76123C7.72624 7.903 8.65299 8.00301 9.49219 8.06123C10.4661 8.12886 11.3698 8.1442 12.2031 8.10725C14.1035 8.02303 15.7363 7.65897 17.1016 7.01509C17.4307 6.85985 17.8115 6.99655 17.9668 7.32579C18.1221 7.65503 17.9854 8.03569 17.6562 8.19093ZM12.4951 9.39423C13.2588 9.35122 13.9844 9.26485 14.6719 9.13513L14.6719 10.9895L12.4951 10.9895L12.4951 9.39423ZM9.40234 9.35812C10.0254 9.40141 10.623 9.42424 11.1943 9.42662L11.1943 10.9895L9.01758 10.9895L9.01758 9.32907C9.14779 9.33966 9.27604 9.34934 9.40234 9.35812Z"/></svg>

<svg xmlns="http://www.w3.org/2000/svg" fill="none" viewBox="0 0 24 24" focusable="false"><path fill="#74767B" fill-rule="evenodd" d="M7 4h10c1.65 0 3 1.34 3 3v10c0 1.65-1.35 3-3 3H7c-1.66 0-3-1.35-3-3V7c0-1.66 1.34-3 3-3m10.65 4.19c-.53.25-1.1.46-1.69.63 0 .04.01.08.01.13v2.03h.34c.36 0 .65.29.65.65 0 .37-.29.65-.65.65h-.34v4.11c0 .37-.29.65-.65.65-.37 0-.65-.28-.65-.65v-4.11H9.01v4.11c0 .37-.28.65-.65.65-.36 0-.65-.28-.65-.65v-4.11h-.3c-.37 0-.65-.28-.65-.65 0-.36.28-.65.65-.65h.3V9.2c-.38-.05-.78-.1-1.18-.16a.645.645 0 1 1 .18-1.28c1.01.14 1.94.24 2.78.3.97.06 1.87.08 2.71.04 1.9-.08 3.53-.45 4.9-1.09.33-.16.71-.02.86.31.16.33.02.71-.31.87m-5.16 1.2c.76-.04 1.49-.13 2.18-.26v1.85h-2.18zM9.4 9.35c.62.05 1.22.07 1.79.07v1.56H9.01V9.32z"/></svg>
